!!!COM:	van Weerbeke, Gaspar
!!!CDT:	~1445//-~1517//
!!!OPR:	Quam pulchra es Cycle
!!!OTL:	Mater patris filia
!!!AGN:	Motet
!!!SMS:	Librone I
!!!SCT:	Gas2017g
!!!SCA:	Gas2017g
!!!voices-OPR: 4
!!!voices:	4
**kern	**text	**kern	**text	**kern	**text	**kern	**text
*staff4	*staff4	*staff3	*staff3	*staff2	*staff2	*staff1	*staff1
*Ivox	*	*Ivox	*	*Ivox	*	*Ivox	*
*I"Bassus	*	*I"Tenor	*	*I"Altus	*	*I"Superius	*
*I'B	*	*I'T	*	*I'A	*	*I'S	*
*clefF4	*	*clefGv2	*	*clefGv2	*	*clefG2	*
*k[b-]	*	*k[b-]	*	*k[b-]	*	*k[b-]	*
*M2/1	*	*M2/1	*	*M2/1	*	*M2/1	*
*met(C)	*	*met(C)	*	*met(C)	*	*met(C)	*
=1-	=1-	=1-	=1-	=1-	=1-	=1-	=1-
0G	Ma-	0r	.	0r	.	0r	.
=2	=2	=2	=2	=2	=2	=2	=2
1A	.	0r	.	0r	.	1r	.
2G\	-ter	.	.	.	.	[1g	Ma-
[2B-\	pa-	.	.	.	.	.	.
=3	=3	=3	=3	=3	=3	=3	=3
2B-\]	.	0r	.	0r	.	1g]	.
4A\	.	.	.	.	.	.	.
4G\	.	.	.	.	.	.	.
1F#i	.	.	.	.	.	1a	.
=4	=4	=4	=4	=4	=4	=4	=4
1G	.	0G	Ma-	0r	.	2g/	-ter
.	.	.	.	.	.	1b-	pa-
1E	.	.	.	.	.	.	.
.	.	.	.	.	.	4a/	.
.	.	.	.	.	.	4g/	.
=5	=5	=5	=5	=5	=5	=5	=5
1D	.	1A	.	1r	.	1f#i	.
2E\	.	2G/	-ter	[1g	Ma-	1g	-tris
[2G\	.	[2B-\	pa-	.	.	.	.
=6	=6	=6	=6	=6	=6	=6	=6
4G\]	.	2B-\]	.	1g]	.	1r	.
4F\	.	.	.	.	.	.	.
2E\	.	4A/	.	.	.	.	.
.	.	4G/	.	.	.	.	.
1D	-tris	1F#i	.	1a	.	1dd	fi-
=7	=7	=7	=7	=7	=7	=7	=7
0r	.	0G	.	2g\	-ter	2b-\	.
.	.	.	.	1b-	pa-	1dd	.
.	.	.	.	4a\	.	4cc\	.
.	.	.	.	4g\	.	4b-\	.
=8	=8	=8	=8	=8	=8	=8	=8
1D	fi-	1d	-fi-	1f#i	.	1a	.
2G\	.	2e\	.	2g\	-tris	2g/	.
2F\	.	[2f\	.	2c\	.	2a/	.
=9	=9	=9	=9	=9	=9	=9	=9
2D\	.	2f\]	.	1d	fi-	2f/	.
1G	.	2d\	.	.	.	1b-	.
.	.	2B-\	.	2e\	.	.	.
[2F\	.	[2c\	.	[2f\	.	[2a/	.
=10	=10	=10	=10	=10	=10	=10	=10
2F\]	.	2c\]	.	2f\]	.	2a/]	.
2G\	-li-	2B-\	.	1.d	.	1g	.
1D	-a,	1A	-li-	.	.	.	.
.	.	.	.	.	.	2f#i/	-li-
=11	=11	=11	=11	=11	=11	=11	=11
0r	.	0G	-a,	2.B-\	-li-	1g	-a,
.	.	.	.	4c\	.	.	.
.	.	.	.	2d\	.	1r	.
.	.	.	.	2e-i\	.	.	.
=12	=12	=12	=12	=12	=12	=12	=12
1G	Mu-	1B-	Mu-	0d	-a,	1g	Mu-
1D	-li-	1A	-li-	.	.	1f	-li-
=13	=13	=13	=13	=13	=13	=13	=13
1.G	-er	1.B-	-er	1.d	Mu-	1.g	-er
2D\	le-	2A/	le-	2d\	-li-	2f/	le-
=14	=14	=14	=14	=14	=14	=14	=14
2G\	-ti-	2B-\	-ti-	1e	-er	2g/	-ti-
2C/	.	2c\	.	.	.	2a/	.
1D	-ti-	1A	-ti-	2d\	le-	1f#i	-ti-
.	.	.	.	[2d\	-ti-	.	.
=15	=15	=15	=15	=15	=15	=15	=15
0G	-a,	0B-	-a,	2d\]	.	1.g	-a,
.	.	.	.	2d\	-ti-	.	.
.	.	.	.	2e\	-a,	.	.
.	.	.	.	[2g\	Stel-	2a/	.
=16	=16	=16	=16	=16	=16	=16	=16
1G	Stel-	1B-	Stel-	4g\]	.	1b-	Stel-
.	.	.	.	4f\	.	.	.
.	.	.	.	4e\	.	.	.
.	.	.	.	4d\	.	.	.
1G	-la	1B-	-la	1e	.	1b-	-la
=17	=17	=17	=17	=17	=17	=17	=17
1.F	ma-	0c	ma-	2f\	-la	1.a	ma-
.	.	.	.	1f	ma-	.	.
2G\	-ris	.	.	4e\	.	2b-\	-ris
.	.	.	.	4d\	.	.	.
=18	=18	=18	=18	=18	=18	=18	=18
1A	ex-	1c	-ris	2c\	-ris	1.cc	ex-
.	.	.	.	1.f	ex-	.	.
1A	-i-	1c	ex-	.	.	.	.
.	.	.	.	.	.	2a/	.
=19	=19	=19	=19	=19	=19	=19	=19
1G	.	1d	-i-	4g\	-i-	1b-	-i-
.	.	.	.	4f\	.	.	.
.	.	.	.	4e\	.	.	.
.	.	.	.	4d\	.	.	.
1E	.	1e	.	1c	.	1g	.
=20	=20	=20	=20	=20	=20	=20	=20
1D	.	1f	.	1d	.	1a	.
1G	.	2.d\	.	1B-	-mi-	1b-	.
.	.	4e\	.	.	.	.	.
=21	=21	=21	=21	=21	=21	=21	=21
2.F\	.	2.f\	.	1c	-a,	2.a/	.
4G\	.	4e\	.	.	.	4b-\	.
2A\	.	2c\	.	2A/	ex-	2cc\	.
2D\	.	2f\	.	[2a\	-i-	2dd\	.
=22	=22	=22	=22	=22	=22	=22	=22
2A\	.	2e\	.	2a\]	.	2cc\	.
2B-\	.	2d\	.	2g\	.	1dd	.
1A	-mi-	1e	-mi-	1a	-mi-	.	.
.	.	.	.	.	.	2cc#i\	-mi-
=23	=23	=23	=23	=23	=23	=23	=23
0D	-a,	0d	-a,	1f	-a,	1.dd	-a,
.	.	.	.	1r	.	.	.
.	.	.	.	.	.	2ee\	ex-
=24	=24	=24	=24	=24	=24	=24	=24
0r	.	2.d\	ex-	0r	.	2.ff\	.
.	.	4e\	.	.	.	4ee\	.
.	.	2f\	.	.	.	2cc\	.
.	.	2d\	.	.	.	2ff\	.
=25	=25	=25	=25	=25	=25	=25	=25
0r	.	2c\	.	0r	.	2ee\	.
.	.	1f	-i-	.	.	1dd	-i-
.	.	2g\	.	.	.	[2ee\	.
=26	=26	=26	=26	=26	=26	=26	=26
0r	.	2e\	.	0r	.	4ee\]	.
.	.	.	.	.	.	4dd\	.
.	.	2f\	.	.	.	1cc	.
.	.	1d	-mi-	.	.	.	.
.	.	.	.	.	.	2bni\	-mi-
=27	=27	=27	=27	=27	=27	=27	=27
0r	.	0c	-a,	0r	.	1cc	-a,
.	.	.	.	.	.	1r	.
=28	=28	=28	=28	=28	=28	=28	=28
0r	.	0r	.	1e-	Au-	1cc	Au-
.	.	.	.	1e-i	-di	1cc	-di
=29	=29	=29	=29	=29	=29	=29	=29
0r	.	0r	.	1.d	nos-	1b-	nos-
.	.	.	.	.	.	1a	-tra
.	.	.	.	2c\	-tra	.	.
=30	=30	=30	=30	=30	=30	=30	=30
0r	.	0r	.	2B-\	sus-	2b-\	sus-
.	.	.	.	1c	-pi-	1a	-pi-
.	.	.	.	2B-\	.	[2g/	.
=31	=31	=31	=31	=31	=31	=31	=31
0r	.	0r	.	1A	-ri-	2g/]	.
.	.	.	.	.	.	2f#i/	-ri-
.	.	.	.	[1G	-a.	1g	-a.
=32	=32	=32	=32	=32	=32	=32	=32
1.G	sus-	0r	.	2G/]	.	0r	.
.	.	.	.	1B-	sus-	.	.
2E\	.	.	.	[2c\	.	.	.
=33	=33	=33	=33	=33	=33	=33	=33
1F	-pi-	0r	.	2c\]	.	0r	.
.	.	.	.	2.d\	-pi-	.	.
2G\	.	.	.	.	.	.	.
.	.	.	.	4e\	.	.	.
[2A\	.	.	.	[2f\	.	.	.
=34	=34	=34	=34	=34	=34	=34	=34
2A\]	.	0r	.	2f\]	.	0r	.
4G\	.	.	.	4e\	.	.	.
4F\	.	.	.	4d\	.	.	.
1E	-ri-	.	.	1c#i	-ri-	.	.
=35	=35	=35	=35	=35	=35	=35	=35
0D	-a.	0f	Re-	1d	-a.	1.dd	Re-
.	.	.	.	1r	.	.	.
.	.	.	.	.	.	4cc\	.
.	.	.	.	.	.	4b-\	.
=36	=36	=36	=36	=36	=36	=36	=36
0r	.	1e	-gi-	0r	.	4cc\	-gi-
.	.	.	.	.	.	4b-\	.
.	.	.	.	.	.	4a/	.
.	.	.	.	.	.	4g/	.
.	.	1d	.	.	.	2f/	-na
.	.	.	.	.	.	[2b-\	po-
=37	=37	=37	=37	=37	=37	=37	=37
0r	.	1d	-na-	0r	.	2b-\]	.
.	.	.	.	.	.	4a/	.
.	.	.	.	.	.	4g/	.
.	.	1c	.	.	.	4a/	-li
.	.	.	.	.	.	4g/	.
.	.	.	.	.	.	4f/	.
.	.	.	.	.	.	4e/	.
=38	=38	=38	=38	=38	=38	=38	=38
0r	.	1B-	-po-	0r	.	2d/	.
.	.	.	.	.	.	2g/	cu-
.	.	2A/	-li	.	.	2f/	.
.	.	[2c\	cu-	.	.	[2a/	.
=39	=39	=39	=39	=39	=39	=39	=39
1r	.	2c\]	.	0r	.	2a/]	.
.	.	2B-\	.	.	.	1g	.
1D	Cu-	1A	-ri-	.	.	.	.
.	.	.	.	.	.	2f/	.
=40	=40	=40	=40	=40	=40	=40	=40
2E\	.	1G	-e,	0r	.	4g/	.
.	.	.	.	.	.	4f/	.
1G	.	.	.	.	.	4e/	.
.	.	.	.	.	.	4d/	.
.	.	1r	.	.	.	2e/	.
2A\	.	.	.	.	.	[2f/	.
=41	=41	=41	=41	=41	=41	=41	=41
2F\	.	0r	.	0r	.	2f/]	.
2G\	.	.	.	.	.	1d	.
1E	-ri-	.	.	.	.	.	.
.	.	.	.	.	.	2c#i/	.
=42	=42	=42	=42	=42	=42	=42	=42
2D\	-e,	0r	.	2.d\	Ma-	1d	.
2.G\	Ma-	.	.	.	.	.	.
.	.	.	.	4c\	.	.	.
.	.	.	.	2d\	.	1r	.
4F\	.	.	.	.	.	.	.
2G\	.	.	.	[2e\	-ter	.	.
=43	=43	=43	=43	=43	=43	=43	=43
2.A\	-ter	0r	.	4e\]	.	0r	.
.	.	.	.	4d\	.	.	.
.	.	.	.	2e\	.	.	.
4G\	.	.	.	.	.	.	.
2A\	.	.	.	2.f\	mi-	.	.
[2B-\	mi-	.	.	.	.	.	.
.	.	.	.	4e\	.	.	.
=44	=44	=44	=44	=44	=44	=44	=44
4B-\]	.	0r	.	2f\	.	0r	.
4A\	.	.	.	.	.	.	.
2B-\	.	.	.	2.g\	-se-	.	.
2.c\	-se-	.	.	.	.	.	.
.	.	.	.	4f\	.	.	.
.	.	.	.	2g\	.	.	.
4B-\	.	.	.	.	.	.	.
=45	=45	=45	=45	=45	=45	=45	=45
2c\	.	0r	.	2.a\	-ri-	0r	.
2.d\	.	.	.	.	.	.	.
.	.	.	.	4g\	.	.	.
.	.	.	.	2a\	.	.	.
4c\	.	.	.	.	.	.	.
2d\	.	.	.	[2b-\	-cor-	.	.
=46	=46	=46	=46	=46	=46	=46	=46
2B-\	-cor-	1r	.	4b-\]	.	0r	.
.	.	.	.	4a\	.	.	.
2c\	.	.	.	1g	.	.	.
1A	-di-	1c	Sis	.	.	.	.
.	.	.	.	2f#i\	-di-	.	.
=47	=47	=47	=47	=47	=47	=47	=47
1G	-e,	2B-\	re-	1g	-e,	1r	.
.	.	2d\	.	.	.	.	.
1r	.	2c\	.	1r	.	1cc	-Sis
.	.	4B-\	.	.	.	.	.
.	.	4A/	.	.	.	.	.
=48	=48	=48	=48	=48	=48	=48	=48
0r	.	2G/	-is	0r	.	2b-\	re-
.	.	2B-\	por-	.	.	2dd\	.
.	.	2A/	.	.	.	2cc\	.
.	.	2c\	.	.	.	4b-\	.
.	.	.	.	.	.	4a/	.
=49	=49	=49	=49	=49	=49	=49	=49
0r	.	2B-\	.	0r	.	2g/	-is
.	.	4A/	.	.	.	2b-\	por-
.	.	4G/	.	.	.	.	.
.	.	1F	-ta	.	.	2a/	.
.	.	.	.	.	.	2cc\	.
=50	=50	=50	=50	=50	=50	=50	=50
1r	.	2G/	ve-	1r	.	2b-\	.
.	.	2B-\	.	.	.	4a/	.
.	.	.	.	.	.	4g/	.
1D	por-	1A	.	1d	por-	1f	-ta
=51	=51	=51	=51	=51	=51	=51	=51
2E\	.	2.G/	.	1B-	.	4g/	ve-
.	.	.	.	.	.	4a/	.
1G	-ta	.	.	.	.	4b-\	.
.	.	4A/	.	.	.	4cc\	.
.	.	2B-\	.	2G/	-ta	2dd\	.
2E\	.	[2c\	.	2g\	ve-	[2ee\	.
=52	=52	=52	=52	=52	=52	=52	=52
2F\	ve-	2c\]	.	2g\	.	2ee\]	.
2D\	.	2d\	.	1.a	-ni-	1dd	.
1A	-ni-	1e	-ni-	.	.	.	.
.	.	.	.	.	.	2cc#i\	-ni-
=53	=53	=53	=53	=53	=53	=53	=53
1B-	-e.	0d	-e.	1f	-e.	1dd	-e.
1G	.	.	.	1g	.	1r	.
=54	=54	=54	=54	=54	=54	=54	=54
1.B-	Ma-	1d	Ma-	1.f	Ma-	1dd	Ma-
.	.	1d	-ri-	.	.	1ff	-ri-
2B-\	-ri-	.	.	2f\	-ri-	.	.
=55	=55	=55	=55	=55	=55	=55	=55
1B-	-a,	2d\	-a,	1f	-a,	2dd\	-a,
.	.	1d	prop-	.	.	1b-	prop-
2B-\	prop-	.	.	2f\	prop-	.	.
2B-\	-ter	2d\	-ter	[2f\	-ter	[2dd\	.
=56	=56	=56	=56	=56	=56	=56	=56
2B-\	fi-	2d\	fi-	2f\]	.	2dd\]	.
2B-\	-li-	2d\	-li-	2f\	fi-	4cc\	.
.	.	.	.	.	.	4b-\	.
[1F	-um	[1c	-um	1f	-li-	1a	-ter
=57	=57	=57	=57	=57	=57	=57	=57
1F]	.	1c]	.	1f	-um	2f/	fi-
.	.	.	.	.	.	2.a/	-li-
1F	Con-	1c	.	1f	Con-	.	.
.	.	.	.	.	.	4b-\	.
.	.	.	.	.	.	[2cc\	.
=58	=58	=58	=58	=58	=58	=58	=58
2F\	-fer	2c\	fer	2f\	-fer	4cc\]	.
.	.	.	.	.	.	4b-\	.
1F	no-	1c	no-	1f	no-	4a/	.
.	.	.	.	.	.	4g/	.
.	.	.	.	.	.	1a	-um
2F\	-bis	2c\	-bis	2f\	-bis	.	.
=59	=59	=59	=59	=59	=59	=59	=59
1.G	re-	1B-	re-	0d	re-	1.b-	Con-
.	.	[1B-	-me-	.	.	.	.
[2G\	-me-	.	.	.	.	2a/	-fer
=60	=60	=60	=60	=60	=60	=60	=60
2G\]	.	2B-\]	.	1B-	-me-	1g	no-
2G\	.	2c\	.	.	.	.	.
1D	-di-	1d	.	1A	.	1f	-bis
=61	=61	=61	=61	=61	=61	=61	=61
0E-	.	1B-	.	1G	.	1.g	re-
.	.	1G	.	1c	.	.	.
.	.	.	.	.	.	2e/	.
=62	=62	=62	=62	=62	=62	=62	=62
1D	.	1A	.	1d	.	1f	-me-
2G\	.	2B-\	.	2e\	.	2g/	.
[2F\	.	[2c\	.	[2f\	.	[2a/	.
=63	=63	=63	=63	=63	=63	=63	=63
2F\]	.	4c\]	.	4f\]	.	2a/]	.
.	.	4B-\	.	4e\	.	.	.
2E\	.	2G/	.	2c\	.	1g	.
1D	-um,	1A	-di	1d	-di-	.	.
.	.	.	.	.	.	2f#i/	-di-
=64	=64	=64	=64	=64	=64	=64	=64
0r	.	0G	um,	2.B-\	-um,	1g	-um,
.	.	.	.	4c\	.	.	.
.	.	.	.	2d\	.	1r	.
.	.	.	.	2e-i\	Bo-	.	.
=65	=65	=65	=65	=65	=65	=65	=65
1G	Bo-	0r	.	2d\	.	1b-	Bo-
.	.	.	.	1g	.	.	.
2G\	-ne	.	.	.	.	2b-\	-ne
2D\	.	.	.	2f\	.	2a/	.
=66	=66	=66	=66	=66	=66	=66	=66
1E-	fi-	1B-	Bo-	1e-i	-ne	1g	fi-
1D	-li,	2B-\	-ne	2r	.	1f	-li,
.	.	2A/	.	2f\	fi-	.	.
=67	=67	=67	=67	=67	=67	=67	=67
1E-i	pre-	1G	fi-	1g	.	1b-	pre-
1F	-ce	1F	-li,	1a	-li,	1a	-ce
=68	=68	=68	=68	=68	=68	=68	=68
1G	ma-	1B-	pre-	2d\	pre-	1dd	ma-
.	.	.	.	2g\	.	.	.
2A\	.	2A/	-ce	2c\	-ce	2cc\	.
2B-\	.	2d\	.	[2f\	ma-	2b-\	.
=69	=69	=69	=69	=69	=69	=69	=69
2F\	.	2c\	ma-	2f\]	.	2a/	.
2G\	.	2B-\	.	2e\	.	1b-	.
1F	-tris	1c	.	1f	.	.	.
.	.	.	.	.	.	2a/	.
=70	=70	=70	=70	=70	=70	=70	=70
1r	.	1B-	-tris	1d	-tris	1b-	-tris
1D	Do-	1r	.	1f	Do-	1dd	Do-
=71	=71	=71	=71	=71	=71	=71	=71
2.D\	-na	1r	.	2.f\	-na	1.dd	-na
4E\	.	.	.	4g\	.	.	.
1F	tu-	1d	Do-	1a	tu-	.	.
.	.	.	.	.	.	2cc\	tu-
=72	=72	=72	=72	=72	=72	=72	=72
1G	-is	1.d	-na	1g	-is	1b-	-is
2D\	reg-	.	.	1f	reg-	1a	reg-
2F\	.	2c\	tu-	.	.	.	.
=73	=73	=73	=73	=73	=73	=73	=73
2G\	-na	1B-	-is	1e-	-na	1g	-na
2E-i\	.	.	.	.	.	.	.
2F\	.	2A/	reg-	2d\	.	2f/	.
[2E-i\	pa-	2B-\	.	[2e-\	pa-	[2g/	pa-
=74	=74	=74	=74	=74	=74	=74	=74
2E-i\]	.	2c\	-na	2e-\]	.	2g/]	.
2F\	.	2A/	.	1.c	.	1f	.
1C	-tris	1G	pa-	.	.	.	.
.	.	.	.	.	.	2e/	.
=75	=75	=75	=75	=75	=75	=75	=75
1c	Reg-	0F	-tris,	2.A/	.	1f	-tris,
.	.	.	.	4B-\	.	.	.
1A	.	.	.	1c	-tris,	1ff	reg-
=76	=76	=76	=76	=76	=76	=76	=76
2.F\	-na	1r	.	1r	.	1.ff	-na
4G\	.	.	.	.	.	.	.
1A	.	1f	reg-	1c	.	.	.
.	.	.	.	.	.	2ee\	.
=77	=77	=77	=77	=77	=77	=77	=77
1B-	pa-	1.f	-na	4d\	na	1dd	pa-
.	.	.	.	4e\	.	.	.
.	.	.	.	4f\	.	.	.
.	.	.	.	4g\	.	.	.
2F\	.	.	.	1a	.	1cc	.
2A\	.	2e\	.	.	.	.	.
=78	=78	=78	=78	=78	=78	=78	=78
2B-\	.	1d	pa-	1g	pa-	1b-	.
2G\	.	.	.	.	.	.	.
2A\	.	2c\	.	2f\	.	2a/	.
[2G\	.	2B-\	.	[2g\	.	[2b-\	.
=79	=79	=79	=79	=79	=79	=79	=79
2G\]	.	1G	.	2g\]	.	2b-\]	.
2E\	.	.	.	2c\	.	1g	.
1D	.	1A	.	1d	.	.	.
.	.	.	.	.	.	2f#i/	.
=80	=80	=80	=80	=80	=80	=80	=80
0Gl	-tris.	0Gl	-tris.	0dl	-tris.	0gl	-tris.
==	==	==	==	==	==	==	==
*-	*-	*-	*-	*-	*-	*-	*-
!!!RDF**kern: l=long note in original notation
!!!RDF**kern: i=editorial accidental
!!!ENC:	Clare Bokulich
!!!END:	2016/03/29/
!!!EED:	Jesse Rodin
!!!EEV:	2016/03/30/
!!!ONB:	Translated from MusicXML and edited on 2016/03/30/ by Craig Sapp
!!muse2ps: C^@{COM}^i2I150v85,85,85,150Q16
!!muse2ps: C^@{COM}\nSource: @{SMS}^i2I150v105,105,105,150Q16c105
!!muse2ps: T^@{OPR}^u^7. @{OTL}^
